icons/drop.svg

<svg xmlns="http://www.w3.org/2000/svg" width="96" height="96"><path d="M75.5 39.2c2.9 4.8 4.5 10.3 4.5 16 0 8.4-3.4 16.6-9.4 22.6S56.5 87.2 48 87.2c-8.5 0-16.6-3.4-22.6-9.4S16 63.6 16 55.2c0-5.7 1.6-11.2 4.5-16 6.2-10.1 13.5-19.5 21.8-28 1.5-1.5 3.6-2.4 5.7-2.4s4.2.9 5.7 2.4c8.3 8.5 15.6 17.9 21.8 28zM24 55.2c0-4.2 1.1-8.3 3.3-11.8 5.9-9.6 12.8-18.5 20.7-26.5 7.9 8 14.8 16.9 20.7 26.5C70.9 46.9 72 51 72 55.2c0 6.3-2.5 12.4-7 16.9-4.5 4.5-10.6 7.1-17 7.1s-12.5-2.6-17-7.1-7-10.6-7-16.9z" fill-rule="evenodd" fill="#454545"/></svg>

<?xml version="1.0" standalone="no"?><!-- Generator: Gravit.io --><svg xmlns="http://www.w3.org/2000/svg" xmlns:xlink="http://www.w3.org/1999/xlink" width="96" height="96"><path d=" M 75.5 39.2 C 78.4 44 80 49.5 80 55.2 C 80 63.6 76.6 71.8 70.6 77.8 C 64.6 83.8 56.5 87.2 48 87.2 L 48 87.2 C 39.5 87.2 31.4 83.8 25.4 77.8 C 19.4 71.8 16 63.6 16 55.2 C 16 49.5 17.6 44 20.5 39.2 C 26.7 29.1 34 19.7 42.3 11.2 C 43.8 9.7 45.9 8.8 48 8.8 C 50.1 8.8 52.2 9.7 53.7 11.2 C 62 19.7 69.3 29.1 75.5 39.2 Z  M 24 55.2 C 24 51 25.1 46.9 27.3 43.4 C 33.2 33.8 40.1 24.9 48 16.9 C 55.9 24.9 62.8 33.8 68.7 43.4 C 70.9 46.9 72 51 72 55.2 C 72 61.5 69.5 67.6 65 72.1 C 60.5 76.6 54.4 79.2 48 79.2 L 48 79.2 C 41.6 79.2 35.5 76.6 31 72.1 C 26.5 67.6 24 61.5 24 55.2 Z " fill-rule="evenodd" fill="#454545" stroke="none"/><mask id="_mask_P5vLBGNZMcbf6n4sYWuwhqK6yFBSQ1Ts"><path d=" M 75.5 39.2 C 78.4 44 80 49.5 80 55.2 C 80 63.6 76.6 71.8 70.6 77.8 C 64.6 83.8 56.5 87.2 48 87.2 L 48 87.2 C 39.5 87.2 31.4 83.8 25.4 77.8 C 19.4 71.8 16 63.6 16 55.2 C 16 49.5 17.6 44 20.5 39.2 C 26.7 29.1 34 19.7 42.3 11.2 C 43.8 9.7 45.9 8.8 48 8.8 C 50.1 8.8 52.2 9.7 53.7 11.2 C 62 19.7 69.3 29.1 75.5 39.2 Z  M 24 55.2 C 24 51 25.1 46.9 27.3 43.4 C 33.2 33.8 40.1 24.9 48 16.9 C 55.9 24.9 62.8 33.8 68.7 43.4 C 70.9 46.9 72 51 72 55.2 C 72 61.5 69.5 67.6 65 72.1 C 60.5 76.6 54.4 79.2 48 79.2 L 48 79.2 C 41.6 79.2 35.5 76.6 31 72.1 C 26.5 67.6 24 61.5 24 55.2 Z " fill-rule="evenodd" fill="white" stroke="none"/></mask><path d=" M 75.5 39.2 C 78.4 44 80 49.5 80 55.2 C 80 63.6 76.6 71.8 70.6 77.8 C 64.6 83.8 56.5 87.2 48 87.2 L 48 87.2 C 39.5 87.2 31.4 83.8 25.4 77.8 C 19.4 71.8 16 63.6 16 55.2 C 16 49.5 17.6 44 20.5 39.2 C 26.7 29.1 34 19.7 42.3 11.2 C 43.8 9.7 45.9 8.8 48 8.8 C 50.1 8.8 52.2 9.7 53.7 11.2 C 62 19.7 69.3 29.1 75.5 39.2 Z  M 24 55.2 C 24 51 25.1 46.9 27.3 43.4 C 33.2 33.8 40.1 24.9 48 16.9 C 55.9 24.9 62.8 33.8 68.7 43.4 C 70.9 46.9 72 51 72 55.2 C 72 61.5 69.5 67.6 65 72.1 C 60.5 76.6 54.4 79.2 48 79.2 L 48 79.2 C 41.6 79.2 35.5 76.6 31 72.1 C 26.5 67.6 24 61.5 24 55.2 Z " fill-rule="evenodd" fill="none" stroke="none" stroke-width="16" mask="url(#_mask_P5vLBGNZMcbf6n4sYWuwhqK6yFBSQ1Ts)"/></svg>
